X: 7
M: C
L: 1/8
K: D
|:\
u(AB)vde fdv[f2d2] | veece Aecu(e | AB)de fdf2 |
gecA d2uk.d2 :||: u(fg)fe fga2 | u(gf)ec efg2 |
u(fg)fe fgau(f | ge)cA vd2uk.d2 :|
ida Artic.  Da ships gyaain to Greenland to fish whales \"osed to
call slang Lerwick to get men to join dem.  Dey usually always


